X: 2
T: Batchelder's
N: RJ R-54
O: New England
M: C|
Z: Transcribed to abc by Mary Lou Knack
R: reel
K: F
c2 |:\
"F"f2af "C7"efge | "F"f2c2- c2=Bc | "Bb"dcBA BAGF |\
[1,3 "C7"EFGA Bcde :|[2,4 "C7"EFGE "F"F2 :: z2 |
|:   "F"A2cA cAcA | "Bb"B2dB dBdB |\
[1,3 "F"A2cA cAcA | "C7"BAGF EFGB :|\
[2,4 "F"Acfa "C7"bgeg | "F"f2a2 f2 :|["trans." f2z2"E7"^c3d :|
% text 10/17/11


